X:1
T:Lightning Returns~Radiance
T:Lightning's Theme ~ Radiance 
T:Masashi Hamauzu
C:Masashi Hamauzu
%%score { 1 | 2 }
L:1/8
Q:1/4=60
M:4/4
K:F
V:1 treble nm="Piano" snm="Pno."
V:2 bass 
V:1
!p! [B,DA]4 G4 |: [Ff]4 [Ee]4 | [Ee]4 [Ff]4 | [cc']4 [EG]4 | [Aa]4 [Gg]4 | [Ff]4 [Ee]4 | [Ee]4 c4 | %7
!>(! [DGd]2 [DA]2 d4!>)! |!mf!!<(! a4 g2 CA,!<)! | f4 e2 G2 | [Ge]4 f4 | [cc']4 c4 | [Bcfa]4 g4 | %13
 f4 e2 c2 |!<(! [GBdea]2 A2!<)!!>(! e2 z2!>)! |!p!!8vb(! [E,G,_D]4 !arpeggio![G,A,DE]4!8vb)! | %16
!f!!<(! [Aea]4 [eae']4!<)! | [dgad']4 z2 [cc'][Bb] | [Ada]4 !arpeggio![Gg]2 !arpeggio![Ff]2 | %19
 !arpeggio![EAce]6 [=Bd]2 |!<(! [Aea]4 [eae']4!<)! | %21
 !arpeggio![d^fg=bd']4 !arpeggio![aa']2 [cc'][B_b] |!>(! !arpeggio![ABdfa]4 !arpeggio![Dd]4!>)! | %23
 z2!p! [Gg]2 [cc']2 [Bb]2 | !arpeggio![ABdfa]8 | [Gg]4 G4 |1 [B,DA]4 G4 :|2 %27
 [A,CE]3 [A,C] [G,=B,]4 || [A,CE]3 [CE] [=B,D]4 | [CEG]4 G,4 |] %30
V:2
 z B,,F,A, D4 |: [G,B,D]G,,D,F, C2 A,2 | [G,A,C]D,,A,,G, C2 A,2 | [G,CF]A,,F,C D2 C2 | %4
 [F,A,D]B,,F,G, D3 A, | [A,B,]G,,D,F, C2 A,2 | [F,,C,A,]C,G,C z G,E, z | [=B,,A,=B,]8 | %8
 (B,,F,A,D!8va(! AGFE)!8va)! | (B,,E,G,C!8va(! GFEC)!8va)! | (D,,G,,C,E,!8va(! CFEC)!8va)! | %11
 (_A,,,F,,C,_E,!8va(! CF_EC)!8va)! | (FG,,[D,C][F,B,]!8va(! CB,FE)!8va)! | (DG,,D,F, CF,CF,) | %14
 (A,,G,DG, D=B,G,B,) | A,,8 | ([F,,,F,,]C,G,A, z A,G,E,) | ([=B,,,=B,,]G,A,!8va(!D A z D-D)!8va)! | %18
 ([B,,,B,,]D,A,D EDCF,) | [D,,,D,,]A,,G,A, [G,=B,D]2 A,2 | [B,,,B,,]F,A,!8va(!D AD!8va)!A,F, | %21
 [A,,,A,,]E,=B,D G4 | [G,,,G,,]D,A,B, z A,F,D, | G,,8 | ([C,,C,]G,B,D FDB,G,) | C8 |1 %26
 B,,,B,,F,A, D4 :|2 (D,,A,,)F, z E,4 || (D,,A,,)F, z E,4 | D,,8 |] %30

